assets/Woman firefighter/Light/Flat/woman_firefighter_flat_light.svg

<svg width="32" height="32" viewBox="0 0 32 32" fill="none" xmlns="http://www.w3.org/2000/svg">
<path d="M23.5 8H8.65C8.26 8.32 7.88 8.64 7.5 8.96V11C7.5 15.69 11.31 19.5 16 19.5C20.69 19.5 24.5 15.69 24.5 11V9.31C24.15 8.89 23.82 8.45 23.5 8Z" fill="#990838"/>
<path d="M23.5 10.4943C23.5 11.0057 23.3864 11.4886 23.178 11.9242C23.1117 12.0663 23.1117 12.2367 23.1686 12.3788C23.3769 12.8049 23.4905 13.2879 23.4905 13.7898C23.4905 15.5606 22.0511 17 20.2803 17H11.7102C9.93939 17 8.5 15.5606 8.5 13.7898C8.5 13.2784 8.61364 12.8049 8.82197 12.3788C8.88826 12.2367 8.88826 12.0663 8.82197 11.9242C8.61364 11.4886 8.5 11.0057 8.5 10.4943C8.5 9.82197 8.70833 9.19697 9.04924 8.68561C9.39962 8.1553 9.57955 7.54924 9.57955 6.91477V6.9053C9.57955 5.08712 11.0568 3.60985 12.875 3.60985C13.0549 3.60985 13.2254 3.52462 13.3295 3.37311C13.9261 2.53977 14.9015 2 16 2C17.108 2 18.0833 2.53977 18.6705 3.37311C18.7746 3.51515 18.9451 3.60038 19.125 3.60038C20.9432 3.60038 22.4205 5.07765 22.4205 6.89583V6.9053C22.4205 7.53977 22.6004 8.1553 22.9508 8.67614C23.3011 9.19697 23.5 9.82197 23.5 10.4943Z" fill="#212121"/>
<path d="M16.005 15.5C12.8287 15.5 9.96433 16.846 7.9546 19C7.13548 19.8779 7 22 7 22C7 22 6 24.3963 6 26V28V29L8 30H16H24L26 29V28V26C26 24.3963 25 22 25 22C25 22 24.8406 19.8368 24 18.9466C21.9955 16.8238 19.155 15.5 16.005 15.5Z" fill="#F92F60"/>
<path d="M17.3575 19.5H14.4926C13.4232 19.5 12.55 18.6489 12.55 17.6065V16.0514C12.55 16.0514 14.5796 15.3598 15.925 15.3596C17.2704 15.3593 19.3 16.05 19.3 16.05V17.6065C19.3 18.6585 18.4269 19.5 17.3575 19.5Z" fill="#990838"/>
<path d="M14.75 16.05V18.5368C14.75 18.9861 15.0673 19.3612 15.5 19.4689V26H16.5V19.5H17.5283C18.6138 19.5 19.5 18.6512 19.5 17.6117V16.0601C19.5 16.0601 18.0579 15.5244 17.098 15.5289C16.1588 15.5334 14.75 16.05 14.75 16.05Z" fill="#CA0B4A"/>
<path d="M9.00005 18C6.57005 20.03 4.99005 23.09 5.00005 26.5V30H9.00005V18Z" fill="#CA0B4A"/>
<path d="M23 18V30H27V26.5C27 23.09 25.45 20.02 23 18Z" fill="#CA0B4A"/>
<path d="M23 26H9V30H23V26Z" fill="#FCD53F"/>
<path d="M19.8973 7.2888H16.7399C15.4863 7.2888 14.3176 6.65685 13.6107 5.61317C13.4882 5.44082 13.2337 5.46954 13.1583 5.67062L13.0829 5.86212C12.8473 6.41747 12.4232 6.84835 11.8954 7.08773C11.8671 7.0973 11.8294 7.11645 11.7917 7.12603C11.5655 7.2505 11.0189 7.61435 11 8.57186L11.132 11.7699C11.2451 14.6041 13.394 16.5 16.0047 16.5C18.6155 16.5 20.7644 14.6041 20.8775 11.7699L21 8.72506C21 7.38455 20.0763 7.2888 19.8973 7.2888Z" fill="#FFD7C2"/>
<path d="M13.3959 9.19678C13.9546 9.19678 14.4092 9.58504 14.7027 10.0206C14.4724 10.0901 14.2484 10.1542 14.0268 10.2177C13.5834 10.3447 13.1498 10.4688 12.6952 10.6267L12.2217 10.2006C12.0323 10.0206 12.0418 9.69867 12.2596 9.54716C12.5721 9.31988 12.9982 9.19678 13.3959 9.19678Z" fill="black"/>
<path d="M18.6136 9.19678C18.0549 9.19678 17.5909 9.58504 17.3068 10.0206C17.5537 10.0961 17.7944 10.1653 18.0338 10.2342C18.4555 10.3555 18.8734 10.4757 19.3143 10.6267L19.7878 10.2006C19.9772 10.0206 19.9677 9.69867 19.7499 9.54716C19.4374 9.31988 19.0113 9.19678 18.6136 9.19678Z" fill="black"/>
<path d="M13.5662 9.3011C12.9128 9.3011 12.3636 9.74618 12.2121 10.3522C12.1742 10.5227 12.3068 10.6931 12.4867 10.6931H14.7121C14.8541 10.6931 14.9677 10.5606 14.9393 10.428C14.8068 9.78406 14.248 9.3011 13.5662 9.3011Z" fill="white"/>
<path d="M18.4338 9.30103C19.0872 9.30103 19.6364 9.7461 19.788 10.3522C19.8258 10.5226 19.6933 10.6931 19.5228 10.6931H17.2974C17.1554 10.6931 17.0417 10.5605 17.0701 10.4279C17.1933 9.78398 17.7614 9.30103 18.4338 9.30103Z" fill="white"/>
<path d="M12.8845 10.4566C12.8845 9.96413 13.2822 9.56641 13.7747 9.56641C14.2671 9.56641 14.6648 9.96413 14.6648 10.4566C14.6648 10.5323 14.6554 10.6175 14.6269 10.6933H12.9129C12.894 10.6175 12.8845 10.5418 12.8845 10.4566Z" fill="#7D4533"/>
<path d="M19.1156 10.4566C19.1156 9.96413 18.7179 9.56641 18.2255 9.56641C17.733 9.56641 17.3353 9.96413 17.3448 10.4566C17.3448 10.5418 17.3542 10.6175 17.3732 10.6933H19.0872C19.1061 10.6175 19.1156 10.5418 19.1156 10.4566Z" fill="#7D4533"/>
<path d="M13.7651 9.94482C14.0492 9.94482 14.2765 10.1721 14.2765 10.4562C14.2765 10.5414 14.2576 10.6172 14.2102 10.6929H13.3106C13.2727 10.6172 13.2538 10.5414 13.2538 10.4562C13.2538 10.1721 13.4811 9.94482 13.7651 9.94482Z" fill="black"/>
<path d="M18.2349 9.94482C17.9508 9.94482 17.7235 10.1721 17.7235 10.4562C17.7235 10.5414 17.7425 10.6172 17.7898 10.6929H18.6894C18.7273 10.6172 18.7462 10.5414 18.7462 10.4562C18.7462 10.1721 18.519 9.94482 18.2349 9.94482Z" fill="black"/>
<path d="M13.6326 10.1058C13.6326 10.1947 13.5606 10.2668 13.4717 10.2668C13.3827 10.2668 13.3107 10.1947 13.3107 10.1058C13.3107 10.0169 13.3827 9.94482 13.4717 9.94482C13.5606 9.94482 13.6326 10.0169 13.6326 10.1058Z" fill="#E5AF93"/>
<path d="M18.0928 10.1058C18.0928 10.1947 18.0208 10.2668 17.9319 10.2668C17.8429 10.2668 17.7709 10.1947 17.7709 10.1058C17.7709 10.0169 17.8429 9.94482 17.9319 9.94482C18.0208 9.94482 18.0928 10.0169 18.0928 10.1058Z" fill="#E5AF93"/>
<path d="M15.6541 10.2897L15.1583 12.0282C15.0554 12.384 15.2986 12.75 15.6447 12.75H16.3743C16.7204 12.75 16.9636 12.384 16.8607 12.0282L16.365 10.2897C16.2621 9.90342 15.7663 9.90342 15.6541 10.2897Z" fill="#E5AF93"/>
<path d="M16.0005 13.7057C15.45 13.7057 14.9301 13.5669 14.4918 13.3212C14.3389 13.2358 14.186 13.4174 14.2777 13.5669C14.6447 14.1542 15.2767 14.5493 16.0005 14.5493C16.7243 14.5493 17.3563 14.1542 17.7233 13.5669C17.8151 13.4174 17.652 13.2465 17.5093 13.3212C17.0607 13.5669 16.551 13.7057 16.0005 13.7057Z" fill="#990838"/>
<path d="M19.3996 8.6478C19.4375 8.67621 19.4848 8.68568 19.5322 8.68568C19.6269 8.68568 19.7121 8.63833 19.7594 8.54363C19.8352 8.41106 19.7973 8.25007 19.6647 8.17431C19.6363 8.15537 18.7651 7.67242 17.7708 7.85234C17.6193 7.88075 17.5246 8.0228 17.553 8.16484C17.5814 8.31636 17.7235 8.41106 17.8655 8.38265C18.6018 8.2527 19.2668 8.58239 19.3821 8.63952C19.3928 8.64484 19.3996 8.6478 19.3996 8.6478Z" fill="#212121"/>
<path d="M12.2309 8.55293C12.2878 8.63815 12.373 8.6855 12.4677 8.6855C12.515 8.6855 12.5624 8.67603 12.6003 8.65709C12.6097 8.64762 13.3294 8.2499 14.1344 8.39194C14.2859 8.42035 14.4184 8.31618 14.4374 8.17414C14.4658 8.03209 14.3616 7.89005 14.2196 7.86164C13.2663 7.68007 12.4349 8.12516 12.3345 8.17892C12.3302 8.18124 12.3256 8.18361 12.3256 8.18361C12.2025 8.25937 12.1552 8.42035 12.2309 8.55293Z" fill="#212121"/>
<path d="M22.5 7L22.5 6.98C22.5 4.23 20.2631 2 17.5046 2H14.4954C11.7369 2 9.5 4.23 9.5 6.98V7C8.4 7 7.5 7.89 7.5 9V10.68C7.5 9.2 8.69 8 10.17 8H21.82C23.3 8 24.5 9.2 24.5 10.68V9C24.5 7.9 23.61 7 22.5 7Z" fill="#F92F60"/>
<path d="M18.75 7H13.25V5.69367C13.25 4.20506 14.4803 3 16 3C17.5197 3 18.75 4.20506 18.75 5.69367V7Z" fill="#321B41"/>
<path d="M15.3468 6.24005C14.964 5.89007 14.75 5.40626 14.75 4.91217V4.78864C14.75 4.62394 14.964 4.55189 15.0878 4.66512L15.1892 4.75776C15.3131 4.87099 15.527 4.78864 15.527 4.63424C15.527 4.24308 15.7523 3.8725 16.1239 3.66663L16.3829 3.52252C16.4955 3.46076 16.6419 3.53281 16.6419 3.65634V4.8607C16.6419 5.06657 16.9122 5.15922 17.0586 5.0254C17.1261 4.96364 17.25 5.00481 17.25 5.09745V5.3445C17.25 5.69449 17.0923 6.02389 16.7995 6.25035C16.5968 6.41505 16.3491 6.4974 16.0788 6.4974H16.0563C15.7973 6.51798 15.5383 6.41505 15.3468 6.24005Z" fill="#F9C23C"/>
<path d="M24 16.3799L22.65 16.0199C22.38 15.9499 22.11 16.1099 22.04 16.3699L18.38 29.9999H20.87L24.36 16.9899C24.42 16.7299 24.26 16.4499 24 16.3799Z" fill="#6D4534"/>
<path d="M21.39 16.9598L25.6 18.0898C26.0107 18.1972 26.4374 18.2288 26.8549 18.1819L28 18.5V18.0898L29 19.5C29.24 20.5702 28.91 20.46 28.5 22C28.09 23.54 27.5471 24.4316 26.749 24.8616C26.669 24.8816 26.38 24.9316 26.33 24.8616L26 24.5C25.8473 24.323 25.4665 24.3839 25.2819 24.2447C24.9345 23.9828 24.5379 23.7908 24.12 23.6798L19.91 22.5498C19.67 22.4898 19.52 22.2598 19.58 22.0398L20.87 17.2298C20.91 17.0198 21.15 16.8998 21.39 16.9598Z" fill="#9B9B9B"/>
<path d="M28.3 21.81C28.68 20.38 28.05 18.92 26.85 18.19C27.09 18.16 27.34 18.11 27.57 18.03L28.02 17.88C28.1 17.85 28.19 17.87 28.26 17.94C29.29 19 29.76 20.56 29.35 22.1C28.94 23.64 27.75 24.76 26.33 25.16C26.25 25.18 26.15 25.16 26.1 25.09L25.79 24.73C25.63 24.54 25.44 24.38 25.25 24.23C26.64 24.19 27.92 23.23 28.3 21.81Z" fill="#D3D3D3"/>
</svg>

<svg xmlns="http://www.w3.org/2000/svg" width="32" height="32" fill="none"><path fill="#990838" d="M23.5 8H8.65c-.39.32-.77.64-1.15.96V11c0 4.69 3.81 8.5 8.5 8.5 4.69 0 8.5-3.81 8.5-8.5V9.31c-.35-.42-.68-.86-1-1.31Z"/><path fill="#212121" d="M23.5 10.494c0 .512-.114.995-.322 1.43a.583.583 0 0 0-.01.455A3.213 3.213 0 0 1 20.28 17h-8.57c-1.77 0-3.21-1.44-3.21-3.21 0-.512.114-.985.322-1.411a.544.544 0 0 0 0-.455 3.297 3.297 0 0 1-.322-1.43c0-.672.208-1.297.55-1.808.35-.53.53-1.137.53-1.771v-.01a3.298 3.298 0 0 1 3.295-3.295c.18 0 .35-.085.454-.237A3.278 3.278 0 0 1 16 2c1.108 0 2.083.54 2.67 1.373a.565.565 0 0 0 .455.227 3.298 3.298 0 0 1 3.296 3.296v.01c0 .634.18 1.25.53 1.77.35.521.549 1.146.549 1.818Z"/><path fill="#F92F60" d="M16.005 15.5a10.98 10.98 0 0 0-8.05 3.5c-.82.878-.955 3-.955 3s-1 2.396-1 4v3l2 1h16l2-1v-3c0-1.604-1-4-1-4s-.16-2.163-1-3.053a10.962 10.962 0 0 0-7.995-3.447Z"/><path fill="#990838" d="M17.358 19.5h-2.865c-1.07 0-1.943-.851-1.943-1.893V16.05s2.03-.691 3.375-.691c1.345 0 3.375.69 3.375.69v1.556c0 1.052-.873 1.894-1.942 1.894Z"/><path fill="#CA0B4A" d="M14.75 16.05v2.487c0 .45.317.824.75.932V26h1v-6.5h1.028c1.086 0 1.972-.849 1.972-1.888V16.06s-1.442-.536-2.402-.531c-.94.004-2.348.521-2.348.521ZM9 18c-2.43 2.03-4.01 5.09-4 8.5V30h4V18ZM23 18v12h4v-3.5c0-3.41-1.55-6.48-4-8.5Z"/><path fill="#FCD53F" d="M23 26H9v4h14v-4Z"/><path fill="#FFD7C2" d="M19.897 7.289H16.74a3.786 3.786 0 0 1-3.13-1.676.255.255 0 0 0-.452.058l-.075.191a2.34 2.34 0 0 1-1.188 1.226c-.028.01-.066.028-.103.038-.226.124-.773.488-.792 1.446l.132 3.198c.113 2.834 2.262 4.73 4.873 4.73 2.61 0 4.76-1.896 4.873-4.73L21 8.725c0-1.34-.924-1.436-1.103-1.436Z"/><path fill="#000" d="M13.396 9.197c.559 0 1.013.388 1.307.824-.23.07-.455.133-.676.197-.444.127-.877.25-1.332.409l-.473-.426c-.19-.18-.18-.502.038-.654a1.99 1.99 0 0 1 1.136-.35ZM18.614 9.197c-.56 0-1.023.388-1.307.824.247.075.487.144.727.213.422.121.84.242 1.28.393l.474-.426c.19-.18.18-.502-.038-.654a1.99 1.99 0 0 0-1.136-.35Z"/><path fill="#fff" d="M13.566 9.301c-.653 0-1.202.445-1.354 1.051-.038.17.095.341.275.341h2.225c.142 0 .256-.132.227-.265a1.401 1.401 0 0 0-1.373-1.127ZM18.434 9.301c.653 0 1.202.445 1.354 1.051.038.17-.095.341-.265.341h-2.226c-.142 0-.255-.133-.227-.265A1.391 1.391 0 0 1 18.434 9.3Z"/><path fill="#7D4533" d="M12.884 10.457a.89.89 0 1 1 1.78 0c0 .075-.009.16-.037.236h-1.714a.956.956 0 0 1-.029-.236ZM19.116 10.457a.89.89 0 0 0-.89-.89.875.875 0 0 0-.881.89c0 .085.01.16.028.236h1.714a.956.956 0 0 0 .029-.236Z"/><path fill="#000" d="M13.765 9.945a.51.51 0 0 1 .511.511.427.427 0 0 1-.066.237h-.9a.513.513 0 0 1 .455-.748ZM18.235 9.945a.51.51 0 0 0-.511.511c0 .085.018.161.066.237h.9a.513.513 0 0 0-.455-.748Z"/><path fill="#E5AF93" d="M13.633 10.106a.16.16 0 1 1-.322 0 .16.16 0 0 1 .322 0ZM18.093 10.106a.16.16 0 1 1-.322 0 .16.16 0 0 1 .322 0ZM15.654 10.29l-.496 1.738c-.103.356.14.722.487.722h.73c.345 0 .589-.366.486-.722l-.496-1.738c-.103-.387-.599-.387-.71 0Z"/><path fill="#990838" d="M16 13.706c-.55 0-1.07-.14-1.508-.385-.153-.085-.306.096-.214.246.367.587.999.982 1.722.982.724 0 1.356-.395 1.723-.982.092-.15-.071-.32-.214-.246a3.118 3.118 0 0 1-1.509.385Z"/><path fill="#212121" d="M19.4 8.648a.217.217 0 0 0 .132.038c.095 0 .18-.048.227-.142a.265.265 0 0 0-.094-.37c-.029-.019-.9-.502-1.894-.322a.267.267 0 0 0-.218.313c.028.151.17.246.313.218.736-.13 1.4.2 1.516.257l.018.008ZM12.23 8.553a.282.282 0 0 0 .238.132c.047 0 .094-.009.132-.028.01-.01.73-.407 1.534-.265a.256.256 0 0 0 .303-.218c.029-.142-.075-.284-.217-.312-.954-.182-1.785.263-1.886.317l-.008.005a.273.273 0 0 0-.095.369Z"/><path fill="#F92F60" d="M22.5 7v-.02C22.5 4.23 20.263 2 17.505 2h-3.01C11.737 2 9.5 4.23 9.5 6.98V7a2 2 0 0 0-2 2v1.68C7.5 9.2 8.69 8 10.17 8h11.65c1.48 0 2.68 1.2 2.68 2.68V9a2 2 0 0 0-2-2Z"/><path fill="#321B41" d="M18.75 7h-5.5V5.694C13.25 4.205 14.48 3 16 3s2.75 1.205 2.75 2.694V7Z"/><path fill="#F9C23C" d="M15.347 6.24a1.807 1.807 0 0 1-.597-1.328V4.79c0-.165.214-.237.338-.124l.101.093c.124.113.338.03.338-.124 0-.39.225-.762.597-.967l.259-.144c.113-.062.259.01.259.133v1.205c0 .206.27.298.417.164.067-.061.191-.02.191.072v.247c0 .35-.158.68-.45.906-.203.165-.45.247-.721.247h-.023a.957.957 0 0 1-.71-.257Z"/><path fill="#6D4534" d="m24 16.38-1.35-.36a.5.5 0 0 0-.61.35L18.38 30h2.49l3.49-13.01a.52.52 0 0 0-.36-.61Z"/><path fill="#9B9B9B" d="m21.39 16.96 4.21 1.13c.41.107.837.139 1.255.092L28 18.5v-.41l1 1.41c.24 1.07-.09.96-.5 2.5-.41 1.54-.953 2.432-1.751 2.862-.08.02-.369.07-.419 0L26 24.5c-.153-.177-.534-.116-.718-.255a3.372 3.372 0 0 0-1.162-.565l-4.21-1.13c-.24-.06-.39-.29-.33-.51l1.29-4.81c.04-.21.28-.33.52-.27Z"/><path fill="#D3D3D3" d="M28.3 21.81c.38-1.43-.25-2.89-1.45-3.62.24-.03.49-.08.72-.16l.45-.15c.08-.03.17-.01.24.06a4.353 4.353 0 0 1 1.09 4.16 4.338 4.338 0 0 1-3.02 3.06c-.08.02-.18 0-.23-.07l-.31-.36a3.64 3.64 0 0 0-.54-.5c1.39-.04 2.67-1 3.05-2.42Z"/></svg>
